icons/bhi_note.svg

<svg xmlns="http://www.w3.org/2000/svg" viewBox="0 0 512 512" enable-background="new 0 0 512 512"><path fill="#010101" d="M352 0h-249.5c-21.4 0-38.5 17.4-38.5 38.8v434.7c0 21.4 17.1 38.5 38.5 38.5h306.9c21.4 0 38.5-17.1 38.5-38.5v-377.5l-95.9-96zm32 429c0 10.5-8.5 19-19 19h-218c-10.5 0-19-8.5-19-19v-301h256v301zm-64-333v-64l64 64h-64zM160 160h192v64h-192zM160 256h192v64h-192zM160 352h192v64h-192z"/></svg>

<?xml version="1.0" encoding="utf-8"?>
<!-- Generator: Adobe Illustrator 19.2.0, SVG Export Plug-In . SVG Version: 6.00 Build 0)  -->
<svg version="1.1" id="Layer_1" xmlns="http://www.w3.org/2000/svg" xmlns:xlink="http://www.w3.org/1999/xlink" x="0px" y="0px"
	 viewBox="0 0 512 512" enable-background="new 0 0 512 512" xml:space="preserve">
<path fill="#010101" d="M352,0H102.5C81.1,0,64,17.4,64,38.8v434.7c0,21.4,17.1,38.5,38.5,38.5h306.9c21.4,0,38.5-17.1,38.5-38.5
	V128V96L352,0z M384,429c0,10.5-8.5,19-19,19H147c-10.5,0-19-8.5-19-19V128h256V429z M320,96V32l64,64H320z"/>
<rect x="160" y="160" fill="#010101" width="192" height="64"/>
<rect x="160" y="256" fill="#010101" width="192" height="64"/>
<rect x="160" y="352" fill="#010101" width="192" height="64"/>
</svg>
